icons/shapes.svg

<?xml version="1.0" encoding="UTF-8" standalone="no"?>
<svg
   xmlns:dc="http://purl.org/dc/elements/1.1/"
   xmlns:cc="http://creativecommons.org/ns#"
   xmlns:rdf="http://www.w3.org/1999/02/22-rdf-syntax-ns#"
   xmlns:svg="http://www.w3.org/2000/svg"
   xmlns="http://www.w3.org/2000/svg"
   id="svg4"
   viewBox="0 0 50 50"
   version="1.1"
   width="50"
   height="50">
  <metadata
     id="metadata10">
    <rdf:RDF>
      <cc:Work
         rdf:about="">
        <dc:format>image/svg+xml</dc:format>
        <dc:type
           rdf:resource="http://purl.org/dc/dcmitype/StillImage" />
        <dc:title></dc:title>
      </cc:Work>
    </rdf:RDF>
  </metadata>
  <defs
     id="defs8" />
  <path
     id="path3956"
     d="m 34.802734,5.5058594 c -1.264948,0.08158 -1.96875,1.2988281 -1.96875,1.2988281 l -7.5,12.9902345 c 0,0 -0.498939,0.875134 -0.310546,1.833984 C 25.264618,23.746137 27.5,23.75 27.5,23.75 h 15 c 0,0 2.215982,-0.0023 2.474609,-2.089844 0.191592,-0.961128 -0.308593,-1.839843 -0.308593,-1.839844 l -7.5,-12.9902339 c 0,0 -0.322238,-0.5518021 -0.917969,-0.9375 L 36.25,5.890625 C 36.17563,5.8476873 36.1054,5.8183079 36.033203,5.7832031 35.91385,5.7211378 35.789453,5.6683328 35.652344,5.6269531 35.3477,5.5283455 35.061549,5.4891677 34.802734,5.5058594 Z M 7.5,26.25 c 0,0 -2.5,0 -2.5,2.5 V 42.5 c 0,0 0,2.5 2.5,2.5 h 13.75 c 0,0 2.5,0 2.5,-2.5 V 28.75 c 0,0 0,-2.5 -2.5,-2.5 z m 28.75,1.25 c -4.832491,0 -8.75,3.917509 -8.75,8.75 0,4.832491 3.917509,8.75 8.75,8.75 C 41.082491,45 45,41.082491 45,36.25 45,31.417509 41.082491,27.5 36.25,27.5 Z" />
</svg>

<?xml version="1.0" encoding="UTF-8"?>
<svg width="50" height="50" version="1.1" viewBox="0 0 50 50" xmlns="http://www.w3.org/2000/svg">
<path d="m34.803 5.5059c-1.2649 0.08158-1.9688 1.2988-1.9688 1.2988l-7.5 12.99s-0.49894 0.87513-0.31055 1.834c0.24118 2.1172 2.4766 2.1211 2.4766 2.1211h15s2.216-0.0023 2.4746-2.0898c0.19159-0.96113-0.30859-1.8398-0.30859-1.8398l-7.5-12.99s-0.32224-0.5518-0.91797-0.9375l0.001953-0.0019531c-0.07437-0.042938-0.1446-0.072317-0.2168-0.10742-0.11935-0.062065-0.24375-0.11487-0.38086-0.15625-0.30464-0.098608-0.5908-0.13779-0.84961-0.12109zm-27.303 20.744s-2.5 0-2.5 2.5v13.75s0 2.5 2.5 2.5h13.75s2.5 0 2.5-2.5v-13.75s0-2.5-2.5-2.5zm28.75 1.25c-4.8325 0-8.75 3.9175-8.75 8.75s3.9175 8.75 8.75 8.75 8.75-3.9175 8.75-8.75-3.9175-8.75-8.75-8.75z"/>
</svg>
